!!!OTL: ES LEBEN DIE STUDENTEN
!!!ARE: Europa, Mitteleuropa, Deutschland
!!!SCT: F0550
!!!YEM: Copyright 1995, estate of Helmut Schaffrath.
**kern
*ICvox
*Ivox
*M6/8
*k[b-]
*F:
{8a
=1
4a
8a
4a
8a
=2
4.a
8a
8r}
{8a
=3
4g#
8a
4dd
8cc
=4
4.cc
4b-}
{8a
=5
4g
8g
4g
8g
=6
4.g
8g
8r}
{8g
=7
4g
8a
4b-
8cc
=8
4.dd
4cc}
{8f
=9
4.dd
8dd
8r
8dd
=10
4.cc
8cc
8r}
{8cc
=11
4b-
8a
4b-
8cc
=12
4.a
8a
8r}
{8f
=13
4.dd
8dd
8r
8dd
=14
4.cc
8cc
8r}
{8cc
=15
4ee
8dd
4b-
8g
=16
8f
8r
8a
8a
8r}
{8a
=17
8a
8r
8a
8cc
8b-
8a
=18
8g
8r
8g
8g
8r}
{8g
=19
8g
8r
8g
8b-
8a
8g
=20
4a
4.r}
{8f
=21
4.dd
8dd
8r
8dd
=22
4.cc
8cc
8r}
{8cc
=23
4b-
8a
4b-
8cc
=24
2a
8r}
{8f
=25
4.dd
8dd
8r
8dd
=26
4.cc
8cc
8r}
{8cc
=27
8ee
8dd
8cc
8b-
8a
8g
=28
4f
4.r}
==
!!!AGN: Studenten - Lied, Geselligkeit
!!!ONB: ESAC (Essen Associative Code) Database: FINK
!!!AMT: compound duple
!!!AIN: vox
!!!EED: Helmut Schaffrath
!!!EEV: 1.0
*-
